public/images/icons/edit_presentation/menu/qa.svg

<svg width="110mm" height="68.4mm" fill-rule="evenodd" stroke-linejoin="round" stroke-width="28.2" preserveAspectRatio="xMidYMid" version="1.2" viewBox="0 0 10951 6840" xmlns="http://www.w3.org/2000/svg" xmlns:ooo="http://xml.openoffice.org/svg/export">
 <defs class="ClipPathGroup">
  <clipPath id="presentation_clip_path">
   <rect width="10951" height="6840"/>
  </clipPath>
 </defs>
 <defs class="TextShapeIndex"></defs>
 <defs class="EmbeddedBulletChars"></defs>
 <g class="Master_Slide"></g>
 <g class="SlideGroup">
  <g class="Slide" clip-path="url(#presentation_clip_path)">
   <g class="Page">
    <g class="com.sun.star.drawing.ClosedBezierShape" transform="matrix(1.11 0 0 1.02 -139 -115)">
     <rect class="BoundingBox" x="289" y="212" width="3894" height="5089" fill="none"/>
     <path d="m1794 4888v-1464c0-226 198-410 442-410 294 0 568-110 770-309 203-198 306-458 290-733-28-515-485-926-1038-936-540-10-1e3 356-1074 851-7 45-10 91-10 137 0 228-198 412-442 412s-442-184-442-412c0-83 7-169 19-251 135-895 959-1560 1927-1560 14 0 27 0 40 1 1014 20 1850 773 1903 1715 28 502-161 979-533 1342-262 258-601 436-968 516v1101c0 226-198 411-442 411s-442-185-442-411z" fill="#05852d"/>
    </g>
    <g class="com.sun.star.drawing.ClosedBezierShape" transform="matrix(1.17 0 0 1.17 -231 -972)">
     <rect class="BoundingBox" x="1742" y="5651" width="912" height="913" fill="none"/>
     <path d="m2653 6107c0 79-21 158-61 227s-98 127-167 167-148 61-228 61-159-21-228-61-125-98-165-167-61-148-61-227c0-80 21-159 61-228s96-127 165-167 148-61 228-61 159 21 228 61 127 98 167 167 61 148 61 228z" fill="#05852d"/>
    </g>
    <g class="com.sun.star.drawing.PolyPolygonShape" transform="translate(-675 -1626)">
     <g transform="translate(521 1411)">
      <rect class="BoundingBox" x="5212" y="1713" width="5301" height="3670" fill="none"/>
      <path d="m5213 2631h3973v-917l1325 1832-1325 1835v-918h-3973z" fill="#ffa500"/>
     </g>
    </g>
   </g>
  </g>
 </g>
</svg>

<?xml version="1.0" encoding="UTF-8"?>
<!DOCTYPE svg PUBLIC "-//W3C//DTD SVG 1.1//EN" "http://www.w3.org/Graphics/SVG/1.1/DTD/svg11.dtd">
<svg version="1.2" width="109.51mm" height="68.4mm" viewBox="0 0 10951 6840" preserveAspectRatio="xMidYMid" fill-rule="evenodd" stroke-width="28.222" stroke-linejoin="round" xmlns="http://www.w3.org/2000/svg" xmlns:ooo="http://xml.openoffice.org/svg/export" xmlns:xlink="http://www.w3.org/1999/xlink" xmlns:presentation="http://sun.com/xmlns/staroffice/presentation" xmlns:smil="http://www.w3.org/2001/SMIL20/" xmlns:anim="urn:oasis:names:tc:opendocument:xmlns:animation:1.0" xml:space="preserve">
 <defs class="ClipPathGroup">
  <clipPath id="presentation_clip_path" clipPathUnits="userSpaceOnUse">
   <rect x="0" y="0" width="10951" height="6840"/>
  </clipPath>
  <clipPath id="presentation_clip_path_shrink" clipPathUnits="userSpaceOnUse">
   <rect x="10" y="6" width="10930" height="6827"/>
  </clipPath>
 </defs>
 <defs class="TextShapeIndex">
  <g ooo:slide="id1" ooo:id-list="id3 id4 id5 id6 id7 id8"/>
 </defs>
 <defs class="EmbeddedBulletChars">
  <g id="bullet-char-template-57356" transform="scale(0.00048828125,-0.00048828125)">
   <path d="M 580,1141 L 1163,571 580,0 -4,571 580,1141 Z"/>
  </g>
  <g id="bullet-char-template-57354" transform="scale(0.00048828125,-0.00048828125)">
   <path d="M 8,1128 L 1137,1128 1137,0 8,0 8,1128 Z"/>
  </g>
  <g id="bullet-char-template-10146" transform="scale(0.00048828125,-0.00048828125)">
   <path d="M 174,0 L 602,739 174,1481 1456,739 174,0 Z M 1358,739 L 309,1346 659,739 1358,739 Z"/>
  </g>
  <g id="bullet-char-template-10132" transform="scale(0.00048828125,-0.00048828125)">
   <path d="M 2015,739 L 1276,0 717,0 1260,543 174,543 174,936 1260,936 717,1481 1274,1481 2015,739 Z"/>
  </g>
  <g id="bullet-char-template-10007" transform="scale(0.00048828125,-0.00048828125)">
   <path d="M 0,-2 C -7,14 -16,27 -25,37 L 356,567 C 262,823 215,952 215,954 215,979 228,992 255,992 264,992 276,990 289,987 310,991 331,999 354,1012 L 381,999 492,748 772,1049 836,1024 860,1049 C 881,1039 901,1025 922,1006 886,937 835,863 770,784 769,783 710,716 594,584 L 774,223 C 774,196 753,168 711,139 L 727,119 C 717,90 699,76 672,76 641,76 570,178 457,381 L 164,-76 C 142,-110 111,-127 72,-127 30,-127 9,-110 8,-76 1,-67 -2,-52 -2,-32 -2,-23 -1,-13 0,-2 Z"/>
  </g>
  <g id="bullet-char-template-10004" transform="scale(0.00048828125,-0.00048828125)">
   <path d="M 285,-33 C 182,-33 111,30 74,156 52,228 41,333 41,471 41,549 55,616 82,672 116,743 169,778 240,778 293,778 328,747 346,684 L 369,508 C 377,444 397,411 428,410 L 1163,1116 C 1174,1127 1196,1133 1229,1133 1271,1133 1292,1118 1292,1087 L 1292,965 C 1292,929 1282,901 1262,881 L 442,47 C 390,-6 338,-33 285,-33 Z"/>
  </g>
  <g id="bullet-char-template-9679" transform="scale(0.00048828125,-0.00048828125)">
   <path d="M 813,0 C 632,0 489,54 383,161 276,268 223,411 223,592 223,773 276,916 383,1023 489,1130 632,1184 813,1184 992,1184 1136,1130 1245,1023 1353,916 1407,772 1407,592 1407,412 1353,268 1245,161 1136,54 992,0 813,0 Z"/>
  </g>
  <g id="bullet-char-template-8226" transform="scale(0.00048828125,-0.00048828125)">
   <path d="M 346,457 C 273,457 209,483 155,535 101,586 74,649 74,723 74,796 101,859 155,911 209,963 273,989 346,989 419,989 480,963 531,910 582,859 608,796 608,723 608,648 583,586 532,535 482,483 420,457 346,457 Z"/>
  </g>
  <g id="bullet-char-template-8211" transform="scale(0.00048828125,-0.00048828125)">
   <path d="M -4,459 L 1135,459 1135,606 -4,606 -4,459 Z"/>
  </g>
  <g id="bullet-char-template-61548" transform="scale(0.00048828125,-0.00048828125)">
   <path d="M 173,740 C 173,903 231,1043 346,1159 462,1274 601,1332 765,1332 928,1332 1067,1274 1183,1159 1299,1043 1357,903 1357,740 1357,577 1299,437 1183,322 1067,206 928,148 765,148 601,148 462,206 346,322 231,437 173,577 173,740 Z"/>
  </g>
 </defs>
 <g>
  <g id="id2" class="Master_Slide">
   <g id="bg-id2" class="Background"/>
   <g id="bo-id2" class="BackgroundObjects"/>
  </g>
 </g>
 <g class="SlideGroup">
  <g>
   <g id="container-id1">
    <g id="id1" class="Slide" clip-path="url(#presentation_clip_path)">
     <g class="Page">
      <g class="com.sun.star.drawing.ClosedBezierShape">
       <g id="id3">
        <rect class="BoundingBox" stroke="none" fill="none" x="289" y="212" width="3894" height="5089"/>
        <path fill="rgb(0,81,252)" stroke="none" d="M 1794,4888 L 1794,3424 C 1794,3198 1992,3014 2236,3014 2530,3014 2804,2904 3006,2705 3209,2507 3312,2247 3296,1972 3268,1457 2811,1046 2258,1036 1718,1026 1258,1392 1184,1887 1177,1932 1174,1978 1174,2024 1174,2252 976,2436 732,2436 488,2436 290,2252 290,2024 290,1941 297,1855 309,1773 444,878 1268,213 2236,213 2250,213 2263,213 2276,214 3290,234 4126,987 4179,1929 4207,2431 4018,2908 3646,3271 3384,3529 3045,3707 2678,3787 L 2678,4888 C 2678,5114 2480,5299 2236,5299 1992,5299 1794,5114 1794,4888 Z"/>
       </g>
      </g>
      <g class="com.sun.star.drawing.ClosedBezierShape">
       <g id="id4">
        <rect class="BoundingBox" stroke="none" fill="none" x="274" y="197" width="3924" height="5119"/>
        <path fill="none" stroke="rgb(52,101,164)" stroke-width="30" stroke-linejoin="round" d="M 1794,4888 L 1794,3424 C 1794,3198 1992,3014 2236,3014 2530,3014 2804,2904 3006,2705 3209,2507 3312,2247 3296,1972 3268,1457 2811,1046 2258,1036 1718,1026 1258,1392 1184,1887 1177,1932 1174,1978 1174,2024 1174,2252 976,2436 732,2436 488,2436 290,2252 290,2024 290,1941 297,1855 309,1773 444,878 1268,213 2236,213 2250,213 2263,213 2276,214 3290,234 4126,987 4179,1929 4207,2431 4018,2908 3646,3271 3384,3529 3045,3707 2678,3787 L 2678,4888 C 2678,5114 2480,5299 2236,5299 1992,5299 1794,5114 1794,4888 Z"/>
       </g>
      </g>
      <g class="com.sun.star.drawing.ClosedBezierShape">
       <g id="id5">
        <rect class="BoundingBox" stroke="none" fill="none" x="1742" y="5651" width="912" height="913"/>
        <path fill="rgb(0,81,252)" stroke="none" d="M 2653,6107 C 2653,6186 2632,6265 2592,6334 2552,6403 2494,6461 2425,6501 2356,6541 2277,6562 2197,6562 2117,6562 2038,6541 1969,6501 1900,6461 1844,6403 1804,6334 1764,6265 1743,6186 1743,6107 1743,6027 1764,5948 1804,5879 1844,5810 1900,5752 1969,5712 2038,5672 2117,5651 2197,5651 2277,5651 2356,5672 2425,5712 2494,5752 2552,5810 2592,5879 2632,5948 2653,6027 2653,6107 Z"/>
       </g>
      </g>
      <g class="com.sun.star.drawing.ClosedBezierShape">
       <g id="id6">
        <rect class="BoundingBox" stroke="none" fill="none" x="1728" y="5637" width="940" height="941"/>
        <path fill="none" stroke="rgb(52,101,164)" stroke-width="28" stroke-linejoin="round" d="M 2653,6107 C 2653,6186 2632,6265 2592,6334 2552,6403 2494,6461 2425,6501 2356,6541 2277,6562 2197,6562 2117,6562 2038,6541 1969,6501 1900,6461 1844,6403 1804,6334 1764,6265 1743,6186 1743,6107 1743,6027 1764,5948 1804,5879 1844,5810 1900,5752 1969,5712 2038,5672 2117,5651 2197,5651 2277,5651 2356,5672 2425,5712 2494,5752 2552,5810 2592,5879 2632,5948 2653,6027 2653,6107 Z"/>
       </g>
      </g>
      <g class="com.sun.star.drawing.PolyPolygonShape">
       <g id="id7">
        <rect class="BoundingBox" stroke="none" fill="none" x="5212" y="1713" width="5301" height="3670"/>
        <path fill="rgb(5,133,45)" stroke="none" d="M 5213,2631 L 9186,2631 9186,1714 10511,3546 9186,5381 9186,4463 5213,4463 5213,2631 Z"/>
       </g>
      </g>
      <g class="com.sun.star.drawing.PolyPolygonShape">
       <g id="id8">
        <rect class="BoundingBox" stroke="none" fill="none" x="5198" y="1699" width="5329" height="3698"/>
        <path fill="none" stroke="rgb(52,101,164)" stroke-width="28" stroke-linejoin="round" d="M 5213,2631 L 9186,2631 9186,1714 10511,3546 9186,5381 9186,4463 5213,4463 5213,2631 Z"/>
       </g>
      </g>
     </g>
    </g>
   </g>
  </g>
 </g>
</svg>
